packages/assets/static/images/icons/backpack.svg

<svg width="24" height="24" viewBox="0 0 24 24" xmlns="http://www.w3.org/2000/svg">
<path d="M15.75 4.55438V3.75C15.75 3.15326 15.5129 2.58097 15.091 2.15901C14.669 1.73705 14.0967 1.5 13.5 1.5H10.5C9.90326 1.5 9.33097 1.73705 8.90901 2.15901C8.48705 2.58097 8.25 3.15326 8.25 3.75V4.55438C7.00133 4.73638 5.85973 5.36133 5.0336 6.31518C4.20746 7.26902 3.75188 8.48813 3.75 9.75V21C3.75 21.3978 3.90804 21.7794 4.18934 22.0607C4.47064 22.342 4.85218 22.5 5.25 22.5H18.75C19.1478 22.5 19.5294 22.342 19.8107 22.0607C20.092 21.7794 20.25 21.3978 20.25 21V9.75C20.2481 8.48813 19.7925 7.26902 18.9664 6.31518C18.1403 5.36133 16.9987 4.73638 15.75 4.55438ZM10.5 3H13.5C13.6989 3 13.8897 3.07902 14.0303 3.21967C14.171 3.36032 14.25 3.55109 14.25 3.75V4.5H9.75V3.75C9.75 3.55109 9.82902 3.36032 9.96967 3.21967C10.1103 3.07902 10.3011 3 10.5 3ZM15.75 15.75H8.25V15C8.25 14.8011 8.32902 14.6103 8.46967 14.4697C8.61032 14.329 8.80109 14.25 9 14.25H15C15.1989 14.25 15.3897 14.329 15.5303 14.4697C15.671 14.6103 15.75 14.8011 15.75 15V15.75ZM8.25 17.25H12.75V18C12.75 18.1989 12.829 18.3897 12.9697 18.5303C13.1103 18.671 13.3011 18.75 13.5 18.75C13.6989 18.75 13.8897 18.671 14.0303 18.5303C14.171 18.3897 14.25 18.1989 14.25 18V17.25H15.75V21H8.25V17.25ZM18.75 21H17.25V15C17.25 14.4033 17.0129 13.831 16.591 13.409C16.169 12.9871 15.5967 12.75 15 12.75H9C8.40326 12.75 7.83097 12.9871 7.40901 13.409C6.98705 13.831 6.75 14.4033 6.75 15V21H5.25V9.75C5.25 8.75544 5.64509 7.80161 6.34835 7.09835C7.05161 6.39509 8.00544 6 9 6H15C15.9946 6 16.9484 6.39509 17.6517 7.09835C18.3549 7.80161 18.75 8.75544 18.75 9.75V21ZM14.25 9C14.25 9.19891 14.171 9.38968 14.0303 9.53033C13.8897 9.67098 13.6989 9.75 13.5 9.75H10.5C10.3011 9.75 10.1103 9.67098 9.96967 9.53033C9.82902 9.38968 9.75 9.19891 9.75 9C9.75 8.80109 9.82902 8.61032 9.96967 8.46967C10.1103 8.32902 10.3011 8.25 10.5 8.25H13.5C13.6989 8.25 13.8897 8.32902 14.0303 8.46967C14.171 8.61032 14.25 8.80109 14.25 9Z"/>
</svg>

<svg viewBox="0 0 24 24" xmlns="http://www.w3.org/2000/svg" aria-hidden="true" fill="currentColor"><path d="M15.75 4.554V3.75A2.25 2.25 0 0 0 13.5 1.5h-3a2.25 2.25 0 0 0-2.25 2.25v.804a5.26 5.26 0 0 0-4.5 5.196V21a1.5 1.5 0 0 0 1.5 1.5h13.5a1.5 1.5 0 0 0 1.5-1.5V9.75a5.26 5.26 0 0 0-4.5-5.196M10.5 3h3a.75.75 0 0 1 .75.75v.75h-4.5v-.75A.75.75 0 0 1 10.5 3m5.25 12.75h-7.5V15a.75.75 0 0 1 .75-.75h6a.75.75 0 0 1 .75.75zm-7.5 1.5h4.5V18a.75.75 0 1 0 1.5 0v-.75h1.5V21h-7.5zM18.75 21h-1.5v-6A2.25 2.25 0 0 0 15 12.75H9A2.25 2.25 0 0 0 6.75 15v6h-1.5V9.75A3.75 3.75 0 0 1 9 6h6a3.75 3.75 0 0 1 3.75 3.75zm-4.5-12a.75.75 0 0 1-.75.75h-3a.75.75 0 1 1 0-1.5h3a.75.75 0 0 1 .75.75"/></svg>
